X:1
T:Quella ch'in suo poter
T:Quella ch'in suo poter
T:Ponponio Nenna
T:Source : Primo libtro delle villanelle a 3 voci---Venetia---Figlio d'A.Gardano---1574. Editor : André Vierendeels (31/03/16).
T:Notes : Original clefs : C1, C3, C4 Editorial accidentals above the staff "Alla napolitana" Music by composers from Bari, collected by G. de Antiquis  
T:©
T:©
C:Ponponio Nenna
Z:©
%%score [ 1 2 3 ]
L:1/8
Q:1/4=85
M:4/4
K:F
V:1 treble nm="Soprano 1" snm="S 1"
V:2 treble nm="Soprano 2" snm="S 2"
V:3 treble-8 nm="Tenor" snm="T"
V:1
 A4 F3 G | A2 B2 A4 | z2 d2 d3 c | B2 B2 A2 B2 | G2 F2 G4 | F2 c4 d2- | d2 cB A2 d2 | B2 c2 A4 | %8
w: 1)Quel- la ch'in|suo po- ter,|quel- la ch'in|suo po- ter tien|1)el mio co-|re, in suo|_ po- * ter tien|el mio co-|
w: 2)Co- no- sc'an-|chor ch'el- la,|co- no- sc'an-|chor ch'el- la mi|2)port' a- mo-|re, an- chor|_ ch'el- * la mi|port' a- mo-|
w: 3)Ne man- ca|fa- vo- rir,|ne man- ca|fa- vo- rir mi|3)tut- te l'ho-|re, fa- vo|_ rir _ mi a|tut- te l'ho-|
w: 4)Del pre- *|sen- te mi,|del pre- sen-|te mi go- do|4)con di- let-|to, mi go-|* * * do con|di- * let-|
[M:2/4] G4 ::[M:3/4] G2 G3 F |[M:4/4] E2 EE A2 B2 | A2 A2 B3 A | G2 F2 G4 | F4 G4 | G6 G2 | %15
w: re,|1)mi mo- stra|lie- to, mi mo- stra|lie- t'ogn'- hor suo|bell' as- pet-|to, ond'|1)io con|
w: re,|2)e per que-|sto, e per que- sto|d'a- mar- la io|son con- stret-|to, ond'|2)io con|
w: re,|3)e mo- stra|se- gni, e mo- stra|se- gni d'a- mo-|ro- so'ef- fet-|to, ond'|3)io con|
w: to,|4)et spe- ro|in bre- v'et spe- ro|in bre- ve go-|der mi- glio-|re, che|4)gu- ste-|
 G2 G2 c4 | =B4 z2 G2 | A4 =B4 | c2 c2 d4 | G2 G2 A4 | B4 c2 c2 | d3 c B4 | A2 B2 G2 F2 | G4 F4 :| %24
w: gran di- let-|to, del|pre- sen-|te mi gio-|1)do, del pre-|sen- te mi|gio- do e|me- glio as- pet-|* to;|
w: gran di- let-|to, del|pre- sen-|te mi gio-|2)do, del pre-|sen- te mi|gio- do e|me- glio as- pet-|* to.|
w: gran di- let-|to, del|pre- sen|te mi gio-|3)do, del pre-|sen- te mi|gio- do e|me- glio as- pet-|* to.|
w: ro quel fio-|re, o-|ve nell'|om- bra si|4)ri- pos' a-|mo- re, nell'|om- bra si|ri- pos' a- mo-|* re.|
V:2
 F4 D3 E | ^F2 G2 F4 | z2 B3 B A2 | G2 G2 F2 D2 | E2 F4 E2 | F2 A4 B2- | B2 G2 F2 B2 | G2 G4 ^F2 | %8
w: 1)Quel- la ch'in|suo po- ter,|quel- la ch'in|suo po- ter tien|1)el mio co-|re, in suo|_ po- ter tien|el mio co-|
w: 2)Co- no- sc'an-|chor ch'el- la,|co- no- sc'an-|chor ch'el- la mi|2)port' a- mo-|re, an- chor|_ ch'el- la mi|port' a- mo-|
[M:2/4] G4 ::[M:3/4] E2 E3 D |[M:4/4] C2 CC F2 G2 | G2 ^F2 G2 D2 | E2 F4 E2 | F4 E4 | E6 D2 | %15
w: re,|1)mi mo- stra|lie- to, mi mo- stra|lie- t'ogn' hor suo|bell' as- pet-|to, ond'|1)io con|
w: re,|2)e per que-|sto, e per que- sto|d'a- mar- la io|son con- stret-|to, ond'|2)io con|
 E2 G4 F2 | G2 D2 E4 | ^F4 G3 F | E4 D2 D2 | E4 ^F4 |"^-natural" G3 F E4 | D2 F2 G4 | %22
w: gran di- let-|to, del pre-|sen- te mi|gio- do, del|1)pre- sen-|te mi gio-|do e me-|
w: gran di- let-|to, del pre-|sen- te mi|gio- do, del|2)pre- sen-|te mi gio-|do e me-|
 F2 D2 E2 F2- | F2 E2 F4 :| %24
w: glio as- * pet-|* * to.|
w: glio as- * pet-|* * to.|
V:3
 F4 B3 c | d2 G2 d4 | z2 B3 B F2 | G2 G2 d2 B2 | c2 d2 c4 | F2 f4 B2- | B2 c2 d2 B2 | %7
w: 3)Ne man- ca|fa- vo- rir,|ne man- ca|fa- vo- rir mi'a|3)tut- te l'ho-|re, fa- vo-|* rir mi a|
w: 4)Del pre- *|en- te mi,|del pre- sen-|te mi go- do|4)con di- let-|to, mi go-|* do con di-|
"^b" e2 c2 d4 |[M:2/4] G4 ::[M:3/4] c2 c3 B |[M:4/4] A2 AA d2 G2 | d2 d2 G2 B2 | c2 d2 c4 | F4 c4 | %14
w: tut- te l'ho-|re,|3)e mo- stra|se- gni, e mo- stra|se- gni d'a- mo-|ro- so'ef- fet-|to, ond'|
w: let- * *|to,|4)et spe- ro|in bre- v'et spe- ro|in bre- ve go-|der mi- glio-|re, che|
 c6 B2 | c3 B A4 | G4 z4 | z4 z2 G2 | A4 B4 | c2 c2 d4 | G2 G2 A4 | B4 G2 G2 | d2 B2 c2 d2 | %23
w: 3)io con|gran di- let-|to,|del|pre- sen-|3)te mi gio-|do e me-|glio, e me-|glio as- pet- *|
w: 4)gu- ste-|ro quel fio-|re,|o-|ve nell'|4)om- bra si|ri- po- s'a-|mo- re, si|ri- po- s'a- mo-|
 c4 F4 :| %24
w: * to.|
w: * re.|

